X:161
T:Gan Ainm
R:polka
Z:transcribed by Dave Marshall
M:2/4
L:1/8
K:G
|: G2 G>A | BA Bd | GB dB | AG ED |  
G2 G>A | BA Bd | (3efg fg | AG G2 |
|: Bd de/f/ | gf ed | Bd de/f/ | gB A2 |
Bd de/f/ | gf ed | (3Bcd Bd | AG G2 |
